X:1
T: The Green Meadow
C:
R:Jig
Q:180
K:D
M:6/8
L:1/16
A2|d2e2f2 A2F2A2|D2E2D2 A2F2A2|d2e2f2 A2F2A2|E2F2A2 B4A2|d2e2f2 A2F2A2|D2E2D2 A2F2A2|d2c2B2 A2G2F2|E2F2A2 B4A2|
d2e2f2 A2F2A2|D2E2D2 A2F2A2|d2e2f2 A2F2A2|E2F2A2 B4A2|d2e2f2 A2F2A2|D2E2D2 A2F2A2|d2c2B2 A2G2F2|E2F2A2 B4A2|
A2d2d2 f2d2B2|c2B2c2 e2c2A2|A2d2d2 f2d2B2|A2F2A2 B4A2|A2d2d2 f2d2B2|c2B2c2 e2f2g2|f2d2B2 A2G2F2|E2F2A2 B4A2|
A2d2d2 f2d2B2|c2B2c2 e2c2A2|A2d2d2 f2d2B2|A2F2A2 B4A2|A2f2f2 f2e2d2|c2e2e2 e2f2g2|f2d2B2 A2G2F2|E2F2A2 B4||
